assets/img/braze_icons/file-attachment-04.svg

<svg fill="none" height="24" viewBox="0 0 24 24" width="24" xmlns="http://www.w3.org/2000/svg"><g fill="#801ed7"><path clip-rule="evenodd" d="m15.2413 1h-6.4826c-.80495-.000012-1.46934-.000021-2.01052.0442-.5621.04592-1.0788.14448-1.56414.39178-.75265.38349-1.36457.99541-1.74806 1.74806-.2473.48534-.34586 1.00204-.39178 1.56414-.04422.54118-.04421 1.20555-.0442 2.01051v10.48261c-.00001.805-.00002 1.4693.0442 2.0105.04592.5621.14448 1.0788.39178 1.5642.38349.7526.99541 1.3645 1.74806 1.748.48534.2473 1.00204.3459 1.56414.3918.54119.0442 1.20554.0442 2.0105.0442h3.97942c.5809 0 .8714 0 .9992-.0876.1288-.0883.184-.1745.2102-.3284.026-.1527-.1156-.4599-.3989-1.0741-.3522-.7636-.5486-1.6138-.5486-2.5099v-4c0-1.6569 1.3431-3 3-3 .085 0 .1692.0035.2524.0105.6148-1.7533 2.2844-3.0105 4.2476-3.0105.2673 0 .5-.20623.5-.47354v-1.76778c0-.80496 0-1.46931-.0442-2.0105-.0459-.5621-.1445-1.0788-.3918-1.56414-.3835-.75265-.9954-1.36457-1.748-1.74806-.4854-.2473-1.0021-.34586-1.5642-.39178-.5412-.044221-1.2055-.044212-2.0105-.0442zm-8.2413 8c-.55228 0-1 .44771-1 1 0 .5523.44772 1 1 1h4.5c.5523 0 1-.4477 1-1 0-.55229-.4477-1-1-1zm-1 5c0-.5523.44772-1 1-1h3.5c.5523 0 1 .4477 1 1s-.4477 1-1 1h-3.5c-.55228 0-1-.4477-1-1zm1-9c-.55228 0-1 .44772-1 1 0 .55229.44772 1 1 1h8c.5523 0 1-.44771 1-1 0-.55228-.4477-1-1-1z" fill-rule="evenodd"/><path d="m20 13.5c0-.2761.2239-.5.5-.5s.5.2239.5.5v5.5c0 1.1046-.8954 2-2 2s-2-.8954-2-2v-4c0-.5523-.4477-1-1-1s-1 .4477-1 1v4c0 2.2091 1.7909 4 4 4s4-1.7909 4-4v-5.5c0-1.3807-1.1193-2.5-2.5-2.5s-2.5 1.1193-2.5 2.5v5.5c0 .5523.4477 1 1 1s1-.4477 1-1z"/></g></svg>

<svg width="24" height="24" viewBox="0 0 24 24" fill="none" xmlns="http://www.w3.org/2000/svg">
<path fill-rule="evenodd" clip-rule="evenodd" d="M15.2413 1H8.7587C7.95375 0.999988 7.28936 0.999979 6.74818 1.0442C6.18608 1.09012 5.66938 1.18868 5.18404 1.43598C4.43139 1.81947 3.81947 2.43139 3.43598 3.18404C3.18868 3.66938 3.09012 4.18608 3.0442 4.74818C2.99998 5.28936 2.99999 5.95373 3 6.75869V17.2413C2.99999 18.0463 2.99998 18.7106 3.0442 19.2518C3.09012 19.8139 3.18868 20.3306 3.43598 20.816C3.81947 21.5686 4.43139 22.1805 5.18404 22.564C5.66938 22.8113 6.18608 22.9099 6.74818 22.9558C7.28937 23 7.95372 23 8.75868 23H12.7381C13.319 23 13.6095 23 13.7373 22.9124C13.8661 22.8241 13.9213 22.7379 13.9475 22.584C13.9735 22.4313 13.8319 22.1241 13.5486 21.5099C13.1964 20.7463 13 19.8961 13 19V15C13 13.3431 14.3431 12 16 12C16.085 12 16.1692 12.0035 16.2524 12.0105C16.8672 10.2572 18.5368 9 20.5 9C20.7673 9 21 8.79377 21 8.52646V6.75868C21 5.95372 21 5.28937 20.9558 4.74818C20.9099 4.18608 20.8113 3.66938 20.564 3.18404C20.1805 2.43139 19.5686 1.81947 18.816 1.43598C18.3306 1.18868 17.8139 1.09012 17.2518 1.0442C16.7106 0.999979 16.0463 0.999988 15.2413 1ZM7 9C6.44772 9 6 9.44771 6 10C6 10.5523 6.44772 11 7 11H11.5C12.0523 11 12.5 10.5523 12.5 10C12.5 9.44771 12.0523 9 11.5 9H7ZM6 14C6 13.4477 6.44772 13 7 13H10.5C11.0523 13 11.5 13.4477 11.5 14C11.5 14.5523 11.0523 15 10.5 15H7C6.44772 15 6 14.5523 6 14ZM7 5C6.44772 5 6 5.44772 6 6C6 6.55229 6.44772 7 7 7H15C15.5523 7 16 6.55229 16 6C16 5.44772 15.5523 5 15 5H7Z" fill="#801ED7"/>
<path d="M20 13.5C20 13.2239 20.2239 13 20.5 13C20.7761 13 21 13.2239 21 13.5V19C21 20.1046 20.1046 21 19 21C17.8954 21 17 20.1046 17 19V15C17 14.4477 16.5523 14 16 14C15.4477 14 15 14.4477 15 15V19C15 21.2091 16.7909 23 19 23C21.2091 23 23 21.2091 23 19V13.5C23 12.1193 21.8807 11 20.5 11C19.1193 11 18 12.1193 18 13.5V19C18 19.5523 18.4477 20 19 20C19.5523 20 20 19.5523 20 19V13.5Z" fill="#801ED7"/>
</svg>
